assets/images/script/s-3-mid.svg

<svg fill="none" height="155" viewBox="0 0 357 155" width="357" xmlns="http://www.w3.org/2000/svg"><path d="m14.3127 122.329c8.5732.495 16.3413 5.823 25.3322 6.389 9.0951.572 35.1382-2.824 30.4709-18.79-5.6409-19.296-34.046-18.3878-47.9863-12.2511-17.28697 7.6101-28.88254 32.9391-7.672 45.6551 22.5181 13.5 57.5859 8.767 81.4971 2.33 28.6724-7.72 63.5864-24.812 70.6404-57.7228.556-22.5691-.636-48.5845-1.882-72.7544 0-3.4066-.579-6.16138-.579-9.31981 0-11.49965 2.004 15.33251 2.004 15.33251 1.324 23.3603.307 40.8988 3.352 61.1048 2.892 19.1877 9.596 35.0237 24.029 47.8017 11.481 10.162 24.616 12.781 39.374 13.453 21.983 1.003 44.756 1.572 66.587-.936 17.884-2.055 35.865-1.242 53.704-3.643 3.243-.436-4.148 2.379-5.356 3.006" stroke="#000" stroke-linecap="round" stroke-width="5"/></svg>

<svg width="357" height="155" viewBox="0 0 357 155" fill="none" xmlns="http://www.w3.org/2000/svg">
<path d="M14.3127 122.329C22.8859 122.824 30.654 128.152 39.6449 128.718C48.74 129.29 74.7831 125.894 70.1158 109.928C64.4749 90.632 36.0698 91.5402 22.1295 97.6769C4.84253 105.287 -6.75304 130.616 14.4575 143.332C36.9756 156.832 72.0434 152.099 95.9546 145.662C124.627 137.942 159.541 120.85 166.595 87.9392C167.151 65.3701 165.959 39.3547 164.713 15.1848C164.713 11.7782 164.134 9.02342 164.134 5.86499C164.134 -5.63466 166.138 21.1975 166.138 21.1975C167.462 44.5578 166.445 62.0963 169.49 82.3023C172.382 101.49 179.086 117.326 193.519 130.104C205 140.266 218.135 142.885 232.893 143.557C254.876 144.56 277.649 145.129 299.48 142.621C317.364 140.566 335.345 141.379 353.184 138.978C356.427 138.542 349.036 141.357 347.828 141.984" stroke="black" stroke-width="5" stroke-linecap="round"/>
</svg>
